!!!OTL: GEH ICH HIN UEBER DIE ALM
!!!ARE: Europa, Mitteleuropa, Oesterreich, Graz
!!!SCT: E1037
!!!YEM: Copyright 1995, estate of Helmut Schaffrath.
**kern
*ICvox
*Ivox
*M3/4
*k[b-e-]
*B-:
{8f
8dd
=1
8f
16ee-
16ee-
4a
8g
8ee-
=2
8f
16dd
16dd
4b-}
{8f
8dd
=3
8ee-
8f
4a
8f
8ee-
=4
8dd
8f
4b-}
{8f
8dd
=5
8f
8ee-
4a
8gg
8ff
=6
8ff
8dd
4b-}
{8f
8dd
=7
8f
8ee-
8a
8f
8ee-
8a
=8
4b-
4r}
==
!!!AGN: Tanz - Lied
!!!ONB: ESAC (Essen Associative Code) Database: ERK3
!!!AMT: simple triple
!!!AIN: vox
!!!EED: Helmut Schaffrath
!!!EEV: 1.0
*-
